packages/kaspersky-hexa-ui-icons/src/iconsSVGs/16/MediaStorage1.svg

<svg width="16" height="16" viewBox="0 0 16 16" fill="none" xmlns="http://www.w3.org/2000/svg">
<path d="M5.69737 4.23151C5.89737 4.34698 5.89737 4.63565 5.69737 4.75112L4.16135 5.63796C3.96135 5.75343 3.71135 5.6091 3.71135 5.37815V3.60448C3.71135 3.37354 3.96135 3.2292 4.16135 3.34467L5.69737 4.23151Z" fill="black"/>
<path fill-rule="evenodd" clip-rule="evenodd" d="M1.03125 4.49133C1.03125 2.56273 2.59467 0.999268 4.52327 0.999268C6.45187 0.999268 8.01529 2.56273 8.01529 4.49133C8.01529 6.41994 6.45187 7.9834 4.52327 7.9834C2.59467 7.9834 1.03125 6.41994 1.03125 4.49133ZM4.52327 2.29927C3.31266 2.29927 2.33125 3.28068 2.33125 4.49133C2.33125 5.70199 3.31266 6.6834 4.52327 6.6834C5.73388 6.6834 6.71529 5.70199 6.71529 4.49133C6.71529 3.28068 5.73388 2.29927 4.52327 2.29927Z" fill="black"/>
<path d="M13.0475 4.29951H9.36156C9.34395 3.84752 9.26438 3.41144 9.13112 2.99951H13.0475C14.1244 2.99951 14.9975 3.87256 14.9975 4.94951V6.05164C14.9975 7.1286 14.1244 8.00165 13.0475 8.00165H8.65002V10.933C9.01115 11.0938 9.30173 11.3843 9.46248 11.7455H14.3047C14.6637 11.7455 14.9547 12.0365 14.9547 12.3955C14.9547 12.7545 14.6637 13.0455 14.3047 13.0455H9.46248C9.21332 13.6052 8.65225 13.9955 8.00002 13.9955C7.3478 13.9955 6.78673 13.6052 6.53757 13.0455H1.69533C1.33635 13.0455 1.04533 12.7545 1.04533 12.3955C1.04533 12.0365 1.33635 11.7455 1.69533 11.7455H6.53756C6.69831 11.3843 6.98889 11.0938 7.35002 10.933V8.42307C7.97032 7.9763 8.48062 7.38636 8.83252 6.70164H13.0475C13.4064 6.70164 13.6975 6.41063 13.6975 6.05164V4.94951C13.6975 4.59053 13.4064 4.29951 13.0475 4.29951Z" fill="black"/>
</svg>

<svg xmlns="http://www.w3.org/2000/svg" width="16" height="16" fill="none" viewBox="0 0 16 16"><path fill="#000" d="M5.6974 4.2315c.2.1155.2.4042 0 .5196l-1.536.8869c-.2.1154-.45-.0289-.45-.2599V3.6046c0-.231.25-.3753.45-.2598z"/><path fill="#000" fill-rule="evenodd" d="M1.0313 4.4913c0-1.9286 1.5634-3.492 3.492-3.492s3.492 1.5634 3.492 3.492-1.5634 3.4921-3.492 3.4921-3.492-1.5635-3.492-3.492m3.492-2.192c-1.2106 0-2.192.9814-2.192 2.192s.9814 2.1921 2.192 2.1921 2.192-.9814 2.192-2.192-.9814-2.1921-2.192-2.1921" clip-rule="evenodd"/><path fill="#000" d="M13.0475 4.2995h-3.686a4.83 4.83 0 0 0-.2304-1.3h3.9164c1.0769 0 1.95.873 1.95 1.95v1.1021c0 1.077-.8731 1.95-1.95 1.95H8.65v2.9314a1.606 1.606 0 0 1 .8125.8125h4.8422a.65.65 0 1 1 0 1.3H9.4625c-.2492.5597-.8102.95-1.4625.95s-1.2133-.3903-1.4624-.95H1.6953a.65.65 0 1 1 0-1.3h4.8423a1.606 1.606 0 0 1 .8124-.8125v-2.51a4.864 4.864 0 0 0 1.4825-1.7214h4.215a.65.65 0 0 0 .65-.65v-1.102a.65.65 0 0 0-.65-.65"/></svg>
